svgs/light/radio.svg

<svg xmlns="http://www.w3.org/2000/svg" viewBox="0 0 512 512"><!-- Font Awesome Pro 6.0.0-alpha2 by @fontawesome - https://fontawesome.com License - https://fontawesome.com/license (Commercial License) --><path d="M351.997 224.005C298.997 224.005 255.998 267.004 255.998 320.003S298.997 416.002 351.997 416.002S447.996 373.002 447.996 320.003S404.996 224.005 351.997 224.005ZM351.997 384.002C316.622 384.002 287.997 355.378 287.997 320.003S316.622 256.004 351.997 256.004S415.996 284.629 415.996 320.003S387.372 384.002 351.997 384.002ZM191.998 368.003H95.999C87.155 368.003 79.999 375.159 79.999 384.002S87.155 400.002 95.999 400.002H191.998C200.842 400.002 207.998 392.846 207.998 384.002S200.842 368.003 191.998 368.003ZM95.999 272.004H191.998C200.842 272.004 207.998 264.848 207.998 256.004C207.998 247.161 200.842 240.005 191.998 240.005H95.999C87.155 240.005 79.999 247.161 79.999 256.004C79.999 264.848 87.155 272.004 95.999 272.004ZM207.998 304.004H79.999C71.156 304.004 63.999 311.16 63.999 320.003S71.156 336.003 79.999 336.003H207.998C216.842 336.003 223.998 328.847 223.998 320.003S216.842 304.004 207.998 304.004ZM447.996 128.007H198.481L500.871 31.243C509.292 28.555 513.933 19.555 511.23 11.134C508.527 2.728 499.605 -1.944 491.121 0.775L93.517 128.007H63.999C28.625 128.007 0 156.631 0 192.006V448.001C0 483.375 28.625 512 63.999 512H447.996C483.371 512 511.996 483.375 511.996 448.001V192.006C511.996 156.631 483.371 128.007 447.996 128.007ZM479.996 448.001C479.996 465.626 465.621 480.001 447.996 480.001H63.999C46.375 480.001 32 465.626 32 448.001V192.006C32 174.381 46.375 160.006 63.999 160.006H447.996C465.621 160.006 479.996 174.381 479.996 192.006V448.001Z"/></svg>

<svg xmlns="http://www.w3.org/2000/svg" viewBox="0 0 512 512"><!--! Font Awesome Pro 6.4.0 by @fontawesome - https://fontawesome.com License - https://fontawesome.com/license (Commercial License) Copyright 2023 Fonticons, Inc. --><path d="M500.1 31.5c8.5-2.3 13.6-11 11.3-19.6s-11-13.6-19.6-11.3L59.4 115.9c-31.3 8.4-54.1 34.6-58.6 66C.3 185.2 0 188.5 0 192v1.2V240 448c0 35.3 28.7 64 64 64H448c35.3 0 64-28.7 64-64V192c0-35.3-28.7-64-64-64H138.1l362-96.5zM32 193.2c0-2.2 .1-4.3 .4-6.4C34.9 171.6 48.1 160 64 160H448c17.7 0 32 14.3 32 32V448c0 17.7-14.3 32-32 32H64c-17.7 0-32-14.3-32-32V240 193.2zM96 240c-8.8 0-16 7.2-16 16s7.2 16 16 16h96c8.8 0 16-7.2 16-16s-7.2-16-16-16H96zM80 304c-8.8 0-16 7.2-16 16s7.2 16 16 16H208c8.8 0 16-7.2 16-16s-7.2-16-16-16H80zm16 64c-8.8 0-16 7.2-16 16s7.2 16 16 16h96c8.8 0 16-7.2 16-16s-7.2-16-16-16H96zm256 16a64 64 0 1 1 0-128 64 64 0 1 1 0 128zm-96-64a96 96 0 1 0 192 0 96 96 0 1 0 -192 0z"/></svg>
